packages/ckeditor5-icons/theme/icons/ai-change-tone.svg

<svg viewBox="0 0 20 20" xmlns="http://www.w3.org/2000/svg">
<path fill-rule="evenodd" clip-rule="evenodd" d="M11.2817 2.77539C12.9437 1.60492 15.259 1.76026 16.7476 3.24121C18.2362 4.72292 18.3921 7.02811 17.2173 8.68359C17.3854 8.97016 17.3501 9.34407 17.105 9.59082C16.8578 9.83907 16.4802 9.87577 16.1919 9.70508C15.3472 10.2999 14.3341 10.554 13.3462 10.4639L10.7212 12.8262C10.7297 12.8712 10.7358 12.9183 10.7358 12.9658V17.7539C10.7354 18.1673 10.3992 18.5033 9.98584 18.5039C9.57191 18.5039 9.23629 18.1677 9.23584 17.7539V14.1631L6.55811 16.5742C6.26434 16.8385 5.86188 16.9487 5.4751 16.8721L4.34131 16.6465L3.27881 17.7041C2.98537 17.9958 2.51039 17.9941 2.21826 17.7012C1.92621 17.4076 1.92677 16.9328 2.22021 16.6406L3.28076 15.585L3.05615 14.4639C2.97792 14.0747 3.09053 13.672 3.35693 13.3789L9.49658 6.62695C9.40694 5.64445 9.66094 4.63698 10.2573 3.79688C10.0894 3.51033 10.1246 3.13729 10.3696 2.89062C10.6166 2.64265 10.9936 2.60519 11.2817 2.77539ZM4.55127 14.2939L4.71631 15.1143C4.73443 15.1293 4.75307 15.1461 4.77002 15.1631C4.78504 15.1783 4.79952 15.1949 4.81299 15.2109L5.64697 15.376L11.6743 9.9502C11.3355 9.76307 11.0148 9.5274 10.7271 9.24121C10.4372 8.95284 10.1982 8.63195 10.0093 8.29199L4.55127 14.2939ZM11.3306 4.9043C10.7432 5.94744 10.8937 7.29033 11.7856 8.17773C12.6779 9.06474 14.0293 9.2158 15.0796 8.63379L11.3306 4.9043ZM15.6899 4.30371C14.7979 3.4164 13.4465 3.266 12.396 3.84766L16.144 7.57617C16.7309 6.53338 16.5811 5.19093 15.6899 4.30371Z"/>
<path d="M4.44092 1.86914C4.64469 2.41983 5.07872 2.8548 5.62939 3.05859L7.49951 3.75L5.62939 4.44141C5.07875 4.64516 4.64473 5.08024 4.44092 5.63086L3.74951 7.5L3.05713 5.63086C2.85331 5.08024 2.4193 4.64516 1.86865 4.44141L-0.000488281 3.75L1.86865 3.05859C2.41933 2.8548 2.85336 2.41983 3.05713 1.86914L3.74951 0L4.44092 1.86914Z"/>
</svg>

<svg xmlns="http://www.w3.org/2000/svg" viewBox="0 0 20 20"><path fill-rule="evenodd" d="M11.282 2.775a4.274 4.274 0 0 1 5.466.466 4.23 4.23 0 0 1 .47 5.443.75.75 0 0 1-.113.907.75.75 0 0 1-.913.114 4.27 4.27 0 0 1-2.846.759l-2.625 2.362a1 1 0 0 1 .015.14v4.788a.75.75 0 0 1-1.5 0v-3.59l-2.678 2.41a1.26 1.26 0 0 1-1.083.298l-1.134-.226-1.062 1.058a.75.75 0 0 1-1.059-1.063l1.06-1.056-.224-1.121c-.078-.39.035-.792.3-1.085l6.14-6.752c-.09-.983.165-1.99.761-2.83a.75.75 0 0 1 .113-.906.75.75 0 0 1 .912-.116m-6.73 11.519.164.82a1 1 0 0 1 .097.097l.834.165 6.027-5.426a4.26 4.26 0 0 1-1.665-1.658zm6.779-9.39a2.73 2.73 0 0 0 .455 3.274 2.77 2.77 0 0 0 3.294.456zm4.359-.6a2.77 2.77 0 0 0-3.294-.456l3.748 3.728a2.73 2.73 0 0 0-.454-3.272" clip-rule="evenodd"/><path d="M4.44 1.87c.205.55.639.985 1.19 1.189l1.87.691-1.87.691c-.551.204-.985.64-1.19 1.19L3.75 7.5l-.693-1.87A2.01 2.01 0 0 0 1.87 4.442L0 3.751l1.87-.691c.55-.204.984-.64 1.188-1.19L3.75 0z"/></svg>
